X: 39348
T: Tam O'Shanter
R: jig
M: 6/8
K: Dmajor
A|:F>GA A>Bc|d2e f2g|a>ba f2d|e>dc B.AG|
F>GA A>Bc|d2e f2g|a>ba f>ed|e>fe d2:|
g|:f>ga g2f|e>fg f2e|d>ef e2d|e>dc B.AG|
F>GA A>Bc|d2e f2g|a>ba f>ed|e>fe d2:|

